polaris-icons/icons/new-icons/CustomersMajor.svg

<svg width="20" height="20" viewBox="0 0 20 20" fill="none" xmlns="http://www.w3.org/2000/svg">
<path fill-rule="evenodd" clip-rule="evenodd" d="M10 3C8.067 3 6.5 4.567 6.5 6.5C6.5 8.433 8.067 10 10 10C11.933 10 13.5 8.433 13.5 6.5C13.5 4.567 11.933 3 10 3ZM8 6.5C8 5.39543 8.89543 4.5 10 4.5C11.1046 4.5 12 5.39543 12 6.5C12 7.60457 11.1046 8.5 10 8.5C8.89543 8.5 8 7.60457 8 6.5Z" fill="#4A4A4A"/>
<path fill-rule="evenodd" clip-rule="evenodd" d="M15.4839 14.2268C14.3775 12.2352 12.2783 11 9.99999 11C7.72169 11 5.62247 12.2352 4.51603 14.2268L4.07937 15.0128C3.58406 15.9043 4.22875 17 5.24867 17H14.7513C15.7712 17 16.4159 15.9043 15.9206 15.0128L15.4839 14.2268ZM5.82727 14.9552C6.66915 13.4398 8.26644 12.5 9.99999 12.5C11.7335 12.5 13.3308 13.4398 14.1727 14.9552L14.4754 15.5H5.52463L5.82727 14.9552Z" fill="#4A4A4A"/>
</svg>

<svg viewBox="0 0 20 20" xmlns="http://www.w3.org/2000/svg"><path fill-rule="evenodd" d="M10 3a3.5 3.5 0 1 0 0 7 3.5 3.5 0 0 0 0-7Zm-2 3.5a2 2 0 1 1 4 0 2 2 0 0 1-4 0Z" fill="#5C5F62"/><path fill-rule="evenodd" d="M15.484 14.227a6.273 6.273 0 0 0-10.968 0l-.437.786a1.338 1.338 0 0 0 1.17 1.987h9.502a1.338 1.338 0 0 0 1.17-1.987l-.437-.786Zm-9.657.728a4.773 4.773 0 0 1 8.346 0l.302.545h-8.95l.302-.545Z" fill="#5C5F62"/></svg>
